src/client/src/assets/icons/logo.svg

<svg width="102" height="34" viewBox="0 0 102 34" fill="none" xmlns="http://www.w3.org/2000/svg">
<path d="M24 17.8085C24 23.4885 19.4718 28 14 28C8.52821 28 4 23.4885 4 17.8085C4 11.9041 8.7432 7 14 7C19.2568 7 24 11.9041 24 17.8085Z" fill="#1BAA65" stroke="#202323" stroke-width="8"/>
<path d="M41.728 26.168C39.76 26.168 38.144 25.704 36.88 24.776C35.616 23.832 34.936 22.488 34.84 20.744H39.856C39.904 21.336 40.08 21.768 40.384 22.04C40.688 22.312 41.08 22.448 41.56 22.448C41.992 22.448 42.344 22.344 42.616 22.136C42.904 21.912 43.048 21.608 43.048 21.224C43.048 20.728 42.816 20.344 42.352 20.072C41.888 19.8 41.136 19.496 40.096 19.16C38.992 18.792 38.096 18.44 37.408 18.104C36.736 17.752 36.144 17.248 35.632 16.592C35.136 15.92 34.888 15.048 34.888 13.976C34.888 12.888 35.16 11.96 35.704 11.192C36.248 10.408 37 9.816 37.96 9.416C38.92 9.016 40.008 8.816 41.224 8.816C43.192 8.816 44.76 9.28 45.928 10.208C47.112 11.12 47.744 12.408 47.824 14.072H42.712C42.696 13.56 42.536 13.176 42.232 12.92C41.944 12.664 41.568 12.536 41.104 12.536C40.752 12.536 40.464 12.64 40.24 12.848C40.016 13.056 39.904 13.352 39.904 13.736C39.904 14.056 40.024 14.336 40.264 14.576C40.52 14.8 40.832 15 41.2 15.176C41.568 15.336 42.112 15.544 42.832 15.8C43.904 16.168 44.784 16.536 45.472 16.904C46.176 17.256 46.776 17.76 47.272 18.416C47.784 19.056 48.04 19.872 48.04 20.864C48.04 21.872 47.784 22.776 47.272 23.576C46.776 24.376 46.048 25.008 45.088 25.472C44.144 25.936 43.024 26.168 41.728 26.168ZM64.7228 12.536L56.1788 32.408H51.0668L54.2828 25.424L48.7628 12.536H53.9948L56.8268 20.168L59.5628 12.536H64.7228ZM74.7614 12.416C76.3134 12.416 77.5454 12.936 78.4574 13.976C79.3694 15 79.8254 16.392 79.8254 18.152V26H75.1214V18.776C75.1214 18.008 74.9214 17.408 74.5214 16.976C74.1214 16.528 73.5854 16.304 72.9134 16.304C72.2094 16.304 71.6574 16.528 71.2574 16.976C70.8574 17.408 70.6574 18.008 70.6574 18.776V26H65.9534V12.536H70.6574V14.456C71.0734 13.848 71.6334 13.36 72.3374 12.992C73.0414 12.608 73.8494 12.416 74.7614 12.416ZM81.6385 19.256C81.6385 17.864 81.9265 16.648 82.5025 15.608C83.0785 14.568 83.8785 13.768 84.9025 13.208C85.9425 12.648 87.1265 12.368 88.4545 12.368C90.1665 12.368 91.6065 12.84 92.7745 13.784C93.9425 14.712 94.6945 16.016 95.0305 17.696H90.0385C89.7505 16.816 89.1905 16.376 88.3585 16.376C87.7665 16.376 87.2945 16.624 86.9425 17.12C86.6065 17.6 86.4385 18.312 86.4385 19.256C86.4385 20.2 86.6065 20.92 86.9425 21.416C87.2945 21.912 87.7665 22.16 88.3585 22.16C89.2065 22.16 89.7665 21.72 90.0385 20.84H95.0305C94.6945 22.504 93.9425 23.808 92.7745 24.752C91.6065 25.696 90.1665 26.168 88.4545 26.168C87.1265 26.168 85.9425 25.888 84.9025 25.328C83.8785 24.768 83.0785 23.968 82.5025 22.928C81.9265 21.888 81.6385 20.664 81.6385 19.256Z" fill="#1BAA65"/>
</svg>

<svg width="102" height="34" fill="none" xmlns="http://www.w3.org/2000/svg"><path d="M24 17.808C24 23.488 19.472 28 14 28S4 23.488 4 17.808C4 11.904 8.743 7 14 7s10 4.904 10 10.808z" fill="#1BAA65" stroke="#202323" stroke-width="8"/><path d="M41.728 26.168c-1.968 0-3.584-.464-4.848-1.392-1.264-.944-1.944-2.288-2.04-4.032h5.016c.048.592.224 1.024.528 1.296.304.272.696.408 1.176.408.432 0 .784-.104 1.056-.312.288-.224.432-.528.432-.912 0-.496-.232-.88-.696-1.152-.464-.272-1.216-.576-2.256-.912-1.104-.368-2-.72-2.688-1.056-.672-.352-1.264-.856-1.776-1.512-.496-.672-.744-1.544-.744-2.616 0-1.088.272-2.016.816-2.784.544-.784 1.296-1.376 2.256-1.776.96-.4 2.048-.6 3.264-.6 1.968 0 3.536.464 4.704 1.392 1.184.912 1.816 2.2 1.896 3.864h-5.112c-.016-.512-.176-.896-.48-1.152-.288-.256-.664-.384-1.128-.384-.352 0-.64.104-.864.312-.224.208-.336.504-.336.888 0 .32.12.6.36.84.256.224.568.424.936.6.368.16.912.368 1.632.624 1.072.368 1.952.736 2.64 1.104a5.093 5.093 0 0 1 1.8 1.512c.512.64.768 1.456.768 2.448 0 1.008-.256 1.912-.768 2.712-.496.8-1.224 1.432-2.184 1.896-.944.464-2.064.696-3.36.696zm22.995-13.632-8.544 19.872h-5.112l3.216-6.984-5.52-12.888h5.232l2.832 7.632 2.736-7.632h5.16zm10.038-.12c1.552 0 2.784.52 3.696 1.56.912 1.024 1.368 2.416 1.368 4.176V26h-4.704v-7.224c0-.768-.2-1.368-.6-1.8-.4-.448-.936-.672-1.608-.672-.704 0-1.256.224-1.656.672-.4.432-.6 1.032-.6 1.8V26h-4.704V12.536h4.704v1.92a4.54 4.54 0 0 1 1.68-1.464c.704-.384 1.512-.576 2.424-.576zm6.877 6.84c0-1.392.288-2.608.864-3.648a5.975 5.975 0 0 1 2.4-2.4c1.04-.56 2.224-.84 3.552-.84 1.713 0 3.153.472 4.32 1.416 1.168.928 1.92 2.232 2.257 3.912h-4.993c-.287-.88-.847-1.32-1.68-1.32-.592 0-1.064.248-1.416.744-.335.48-.503 1.192-.503 2.136 0 .944.168 1.664.504 2.16.352.496.823.744 1.416.744.848 0 1.407-.44 1.68-1.32h4.992c-.337 1.664-1.089 2.968-2.257 3.912-1.168.944-2.608 1.416-4.32 1.416-1.328 0-2.511-.28-3.551-.84a5.975 5.975 0 0 1-2.4-2.4c-.576-1.04-.865-2.264-.865-3.672z" fill="#1BAA65"/></svg>
